X: 358
T: Bir Dilberdir Beni Yakan
C: Tanburî Mustafa Çavuş
O: Turkey
F: http://compmusic.upf.edu/node/140
N: huseyni--sarki--aksak--bir_dilberdir--tanburi_mustafa_cavus
N: makam= huseyni
N: form= sarki
N: usul= aksak = 9/8
M: 9/8
L: 1/16
K: C _2/4B ^3/4f  
Q: 1/4=144
%%MIDI tuningsystem comma53
d4 e2f2 g2f2 g4 f2 | e4e4e2 f2d4z2  | \
w:  Bir  dil *  ber *  dir   |  be ni  ya *  kan    | 
e2d2 e2f2 g2f2 e4 d2 | 
w:  Gur *  bet  *  ol *  du   | 
d4e2 d2c2 B2c4z2  | c4 c4 c4 c2_1/4B2 A2 | \
w:  bi ze  *  va *  tan    |  Yâr  sem ti dir   | 
A4B2 A2G2 F2E4z2  | c8 c2B2 B2A2 G2 | 
w:  bi ze  *  me *  kân    |  Ah  *  *  *  *  ku  | 
c16z2  | e2d2 d2c2 c2B2 B2A2 G2 | A12f2 e2d2  | \
w:  zum   |  ah  *  *  *  *  *  *  *  gö  |  züm   | 
c3B B2{c}BA A8 z2 | 
w:  sab *  re *  de *  mem    | 
d2 e14f2  | d16 z2 | e2 f2g2 f2g2 f2e4d2  | \
w:  Gel   |  gel   |  gel  *  *  *  *  *  *  a  | 
g6f2 e2f2 g4 fe | e16z2  | 
w:  man  *  *  *  *  a  |  man   | 
d4 e2f2 g2f2 g4 f2 | a4g2 f2e8z2  | g8 g2f2 f2e2 d2 | \
w:  za rif  *  dos *  tum   |  sev di *  ğim    |  Gel  *  *  *  *  a  | 
g6 f2e2 f2g2 {a}gffe  | 
w:  man  *  *  *  *  *  *  *  a  | 
e16 z2 | g2 =f2f2 e2e2 d2d4c2  | g2=f2 f2e2 e2d2 d4 c2 | \
w:  man   |  i *  ki  *  ka *  şın   |  a *  ra *  sı *  na   | 
d4e2 d2c2 B2c4z2  | 
w:  ya pış *  tır *  sam    | 
e2d2 d2=f2 e2d2 c2_1/4B2 c2 | d4c2 B2A4c2 _1/4B2c2  | \
w:  Mec *  nûn  *  ol *  sun   |  ol *  *  sun   | 
d4 c2B2 A8 z2 | 
w:  zer ni *  şan    | 
c8c2 B2B2 A2G2  | c16 z2 | e2 d2d2 c2c2 B2B2 A2G2  | \
w:  Ah  *  *  *  *  ku  |  zum   |  ah  *  *  *  *  *  *  *  gö  | 
A12 f2e2 d2 | 
w:  züm   | 
c3BB2 {c}BAA8z2  | |


